assets/collections/arcade/logo_mono.svg

<svg height="155" width="505" xmlns="http://www.w3.org/2000/svg"><g stroke-width="7" stroke-linecap="round" stroke-linejoin="round" fill="#fff"><path d="M95.599 131.081H68.22v-8.597q-3.923 4.924-7.93 7.178-7.011 3.923-15.942 3.923-14.44 0-25.709-9.933Q5.202 111.8 5.202 92.268q0-19.865 13.772-31.718 10.935-9.432 25.124-9.432 8.264 0 15.526 3.506 4.173 2.003 8.597 6.594v-7.596h27.378zm-26.544-38.73q0-7.345-5.175-12.436-5.175-5.175-12.52-5.175-8.18 0-13.438 6.176-4.257 5.008-4.257 11.436 0 6.427 4.257 11.435 5.175 6.176 13.438 6.176 7.429 0 12.52-5.091 5.175-5.092 5.175-12.52zm92.542-13.438q-5.76-2.754-11.686-2.754-13.522 0-17.528 11.017-1.503 4.007-1.503 10.768v33.137h-27.378V53.622h27.378V66.31q4.34-6.76 9.349-9.766 6.76-4.006 16.026-4.006 2.17 0 5.342.25z"/><path d="M221.418 129.412q-8.514 4.257-17.862 4.257-21.201 0-33.638-14.357-10.016-11.602-10.016-26.877 0-15.358 10.016-26.877 12.437-14.357 33.638-14.357 9.515 0 17.862 4.34V78.83q-7.262-5.092-14.19-5.092-8.18 0-13.521 5.259-5.342 5.258-5.342 13.438t5.342 13.438q5.342 5.259 13.521 5.259 6.845 0 14.19-5.008zm92.041 1.669H286.08v-8.597q-3.923 4.924-7.93 7.178-7.011 3.923-15.942 3.923-14.44 0-25.709-9.933-13.438-11.852-13.438-31.384 0-19.865 13.772-31.718 10.935-9.432 25.124-9.432 8.264 0 15.526 3.506 4.173 2.003 8.597 6.594v-7.596h27.378zm-26.544-38.73q0-7.345-5.175-12.436-5.175-5.175-12.52-5.175-8.18 0-13.438 6.176-4.257 5.008-4.257 11.436 0 6.427 4.257 11.435 5.175 6.176 13.438 6.176 7.429 0 12.52-5.091 5.175-5.092 5.175-12.52zm121.755 38.73h-27.377v-8.597q-3.923 4.924-7.93 7.178-7.01 3.923-15.942 3.923-14.44 0-25.708-9.933-13.439-11.852-13.439-31.384 0-19.865 13.772-31.718 10.935-9.432 25.125-9.432 8.263 0 15.525 3.506 4.173 2.003 8.597 6.594V5.71h27.378zm-26.542-38.73q0-7.345-5.175-12.436-5.175-5.175-12.52-5.175-8.18 0-13.44 6.176-4.256 5.008-4.256 11.436 0 6.427 4.257 11.435 5.175 6.176 13.438 6.176 7.43 0 12.52-5.091 5.176-5.092 5.176-12.52zm116.663 5.009h-57.593q0 17.445 16.86 17.445 8.598 0 13.189-7.346h26.46q-3.173 10.517-9.35 16.277-11.184 10.433-29.964 10.433-23.873 0-35.892-14.523-9.015-10.851-9.015-26.46 0-18.53 11.269-30.132 11.268-11.602 31.801-11.602 25.291 0 36.142 18.363 6.093 10.35 6.093 24.039zM473.25 81.668q-2.921-12.855-15.609-12.855-7.011 0-11.351 4.09-3.423 3.256-4.34 8.765z"/></g></svg>

<?xml version="1.0" encoding="UTF-8" standalone="no"?><!-- Generator: Gravit.io --><svg xmlns="http://www.w3.org/2000/svg" xmlns:xlink="http://www.w3.org/1999/xlink" style="isolation:isolate" viewBox="0 0 505 155" width="505pt" height="155pt"><defs><clipPath id="_clipPath_RjdRcvneYEHBodOnzZY6fizPqUFn8io2"><rect width="505" height="155"/></clipPath></defs><g clip-path="url(#_clipPath_RjdRcvneYEHBodOnzZY6fizPqUFn8io2)"><path d=" M 95.599 131.081 L 68.221 131.081 L 68.221 122.484 Q 64.298 127.408 60.291 129.662 Q 53.28 133.585 44.349 133.585 Q 29.909 133.585 18.64 123.652 Q 5.202 111.8 5.202 92.268 Q 5.202 72.403 18.974 60.55 Q 29.909 51.118 44.098 51.118 Q 52.362 51.118 59.624 54.624 Q 63.797 56.627 68.221 61.218 L 68.221 53.622 L 95.599 53.622 L 95.599 131.081 Z  M 69.055 92.352 Q 69.055 85.006 63.88 79.915 Q 58.705 74.74 51.36 74.74 Q 43.18 74.74 37.922 80.916 Q 33.665 85.924 33.665 92.352 Q 33.665 98.779 37.922 103.787 Q 43.097 109.963 51.36 109.963 Q 58.789 109.963 63.88 104.872 Q 69.055 99.78 69.055 92.352 Z " fill="rgb(255,255,255)"/><path d=" M 161.597 78.913 Q 155.837 76.159 149.911 76.159 Q 136.389 76.159 132.383 87.176 Q 130.88 91.183 130.88 97.944 L 130.88 131.081 L 103.502 131.081 L 103.502 53.622 L 130.88 53.622 L 130.88 66.309 Q 135.221 59.548 140.229 56.543 Q 146.99 52.537 156.255 52.537 Q 158.425 52.537 161.597 52.787 L 161.597 78.913 Z " fill="rgb(255,255,255)"/><path d=" M 221.418 129.412 Q 212.904 133.669 203.556 133.669 Q 182.355 133.669 169.918 119.312 Q 159.902 107.71 159.902 92.435 Q 159.902 77.077 169.918 65.558 Q 182.355 51.201 203.556 51.201 Q 213.071 51.201 221.418 55.542 L 221.418 78.83 Q 214.156 73.738 207.228 73.738 Q 199.049 73.738 193.707 78.997 Q 188.365 84.255 188.365 92.435 Q 188.365 100.615 193.707 105.873 Q 199.049 111.132 207.228 111.132 Q 214.073 111.132 221.418 106.124 L 221.418 129.412 Z " fill="rgb(255,255,255)"/><path d=" M 313.459 131.081 L 286.081 131.081 L 286.081 122.484 Q 282.158 127.408 278.151 129.662 Q 271.14 133.585 262.209 133.585 Q 247.769 133.585 236.5 123.652 Q 223.062 111.8 223.062 92.268 Q 223.062 72.403 236.834 60.55 Q 247.769 51.118 261.958 51.118 Q 270.222 51.118 277.484 54.624 Q 281.657 56.627 286.081 61.218 L 286.081 53.622 L 313.459 53.622 L 313.459 131.081 Z  M 286.916 92.352 Q 286.916 85.006 281.74 79.915 Q 276.565 74.74 269.22 74.74 Q 261.04 74.74 255.782 80.916 Q 251.525 85.924 251.525 92.352 Q 251.525 98.779 255.782 103.787 Q 260.957 109.963 269.22 109.963 Q 276.649 109.963 281.74 104.872 Q 286.916 99.78 286.916 92.352 Z " fill="rgb(255,255,255)"/><path d=" M 408.671 131.081 L 381.293 131.081 L 381.293 122.484 Q 377.37 127.408 373.363 129.662 Q 366.352 133.585 357.421 133.585 Q 342.981 133.585 331.713 123.652 Q 318.274 111.8 318.274 92.268 Q 318.274 72.403 332.046 60.55 Q 342.981 51.118 357.171 51.118 Q 365.434 51.118 372.696 54.624 Q 376.869 56.627 381.293 61.218 L 381.293 5.711 L 408.671 5.711 L 408.671 131.081 Z  M 382.128 92.352 Q 382.128 85.006 376.953 79.915 Q 371.778 74.74 364.432 74.74 Q 356.252 74.74 350.994 80.916 Q 346.737 85.924 346.737 92.352 Q 346.737 98.779 350.994 103.787 Q 356.169 109.963 364.432 109.963 Q 371.861 109.963 376.953 104.872 Q 382.128 99.78 382.128 92.352 Z " fill="rgb(255,255,255)"/><path d=" M 498.791 97.36 L 441.198 97.36 Q 441.198 114.805 458.059 114.805 Q 466.656 114.805 471.247 107.459 L 497.706 107.459 Q 494.534 117.976 488.358 123.736 Q 477.173 134.169 458.393 134.169 Q 434.52 134.169 422.501 119.646 Q 413.486 108.795 413.486 93.186 Q 413.486 74.656 424.755 63.054 Q 436.023 51.452 456.556 51.452 Q 481.847 51.452 492.698 69.815 Q 498.791 80.165 498.791 93.854 L 498.791 97.36 Z  M 473.25 81.668 Q 470.329 68.813 457.641 68.813 Q 450.63 68.813 446.29 72.903 Q 442.867 76.159 441.949 81.668 L 473.25 81.668 Z " fill="rgb(255,255,255)"/></g></svg>
